X:1
T:Pembroke, 886 D
T:Pembroke, 886 D
T:James Foster (1807–1885)
T:Public Domain Courtesy of the Cyber Hymnal™
C:James Foster (1807–1885)
Z:Public Domain
Z:Courtesy of the Cyber Hymnal™
%%score ( 1 2 ) ( 3 4 )
L:1/8
Q:1/4=115
M:3/4
K:G
V:1 treble 
V:2 treble 
V:3 bass 
V:4 bass 
V:1
 [DG]2 | (B2 A2) [DG]2 | d4 [Gd]2 | ([Ac]2 [GB]2) [FA]2 | [GB]4 [DB]2 | (A2 e2) [Gd]2 | %6
 ([DG]2 [Fc]2) [GB]2 | (E2 A2) [EG]2 | [DF]4 [FA]2 | (B2 ^c2) [Fd]2 | [Ed]4 [E^c]2 | [Fd]4 [Gd]2 | %12
 d4 [Gd]2 | ([Gd]2 [Fc]2) [GB]2 | ([FA]2 [GB]2) [Ac]2 | [GB]4 [GB]2 | [GB]4 [FB]2 | [Ee]4 [DG]2 | %18
 ([Fd]2 [Ac]2) [GB]2 | [FA]4 [GB]2 | ([Gc]2 [=Fd]2) [Ee]2 | [Gd]4 [DF]2 | [DG]4 |] %23
V:2
 x2 | D4 x2 | (G2 F2) x2 | x6 | x6 | F4 x2 | x6 | E4 x2 | x6 | G4 x2 | x6 | x6 | (B2 A2) x2 | x6 | %14
 x6 | x6 | x6 | x6 | x6 | x6 | x6 | x6 | x4 |] %23
V:3
 [G,B,]2 | (D2 C2) [G,B,]2 | (B,2 A,2) [G,B,]2 | D4 [D,D]2 | [G,D]4 G,2 | A,4 [B,,B,]2 | %6
 ([B,,B,]2 [A,,C]2) [G,,D]2 | [C,C]4 [A,,^C]2 | [D,D]4 [D,D]2 | ([G,D]2 [E,E]2) [F,A,]2 | %10
 [G,B,]4 A,2 | [D,A,]4 [G,B,]2 | D2 C2 [G,B,]2 | (B,2 A,2) [D,G,]2 | (C2 B,2) [D,A,]2 | %15
 [G,,B,]4 [G,D]2 | E4 [B,D]2 | C4 [B,D]2 | D4 [G,D]2 | [D,D]4 [G,D]2 | ([E,C]2 [D,B,]2) [C,C]2 | %21
 (B,2 A,2) [D,C]2 | [G,,B,]4 |] %23
V:4
 x2 | G,4 x2 | D,4 x2 | (F,2 G,2) x2 | x4 G,2 | (D,2 C,2) x2 | x6 | x6 | x6 | x6 | x4 A,2 | x6 | %12
 G,4 x2 | D,4 x2 | D,4 x2 | x6 | (E,2 G,2) x2 | C4 x2 | (A,2 F,2) x2 | x6 | x6 | D,4 x2 | x4 |] %23

